src/categories-icons-sprite/categories/svg-cat-sport-bicycle.svg

<svg width="32" height="24" viewBox="0 0 32 24" fill="none" xmlns="http://www.w3.org/2000/svg">
<path class="p-32393F" d="M24.985 11.0769C21.4165 11.0769 18.5234 13.9699 18.5234 17.5384C18.5234 21.107 21.4165 24 24.985 24C28.5535 24 31.5081 21.107 31.5081 17.5384C31.5081 13.9699 28.5535 11.0769 24.985 11.0769ZM24.985 22.1538C22.4403 22.1538 20.3696 20.0832 20.3696 17.5384C20.3696 14.9937 22.4403 12.9231 24.985 12.9231C27.5297 12.9231 29.6619 14.9937 29.6619 17.5384C29.6619 20.0832 27.5297 22.1538 24.985 22.1538Z" fill="#4D98CB"/>
<path class="p-575F64" d="M6.52308 11.0769C2.95457 11.0769 0 13.9699 0 17.5384C0 21.107 2.95457 24 6.52308 24C10.0916 24 12.9846 21.107 12.9846 17.5384C12.9846 13.9699 10.0916 11.0769 6.52308 11.0769ZM6.52308 22.1538C3.97837 22.1538 1.84615 20.0832 1.84615 17.5384C1.84615 14.9937 3.97837 12.9231 6.52308 12.9231C9.06779 12.9231 11.1385 14.9937 11.1385 17.5384C11.1385 20.0832 9.06779 22.1538 6.52308 22.1538Z" fill="#58ADE5"/>
<path class="p-73BCFF" d="M9.19441 4.20215L11.0403 7.89446L9.38912 8.71994L7.54297 5.02787L9.19441 4.20215Z" fill="#A1D1FD"/>
<path class="p-0095FF" d="M25.6505 16.6154L20.7272 1.84617L19.5236 0.923096L18.7812 1.84617L24.3197 18.4616H25.9082C26.418 18.4616 26.8313 18.0483 26.8313 17.5385C26.8313 17.0287 26.418 16.6154 25.9082 16.6154H25.6505Z" fill="#5FBEFF"/>
<path class="p-73BCFF" d="M21.9013 7.38452V9.23068H10.7874L7.6674 14.7691L6.52269 16.6153L5.59961 14.7691L9.64264 7.38452H21.9013Z" fill="#A1D1FD"/>
<path class="p-0095FF" d="M15.7539 7.38452H21.9017V9.23068H15.7539V7.38452Z" fill="#5FBEFF"/>
<path class="p-575F64" d="M18.3753 22.5599L16.8248 23.594L15.7539 21.9878L13.1992 17.8828L14.7314 16.8489L15.7539 18.6277L18.3753 22.5599Z" fill="#58ADE5"/>
<path class="p-32393F" d="M18.3753 22.5597L16.8248 23.5938L15.7539 21.9875V18.6274L18.3753 22.5597Z" fill="#4D98CB"/>
<path class="p-575F64" d="M5.59961 4.61546C5.59961 4.10566 6.01288 3.69238 6.52269 3.69238H12.9842V5.53854H6.52269C6.01289 5.53854 5.59961 5.12526 5.59961 4.61546Z" fill="#58ADE5"/>
<path class="p-575F64" d="M20.7202 1.84615H15.7541C15.2443 1.84615 14.8311 1.43288 14.8311 0.923077C14.8311 0.413276 15.2443 0 15.7541 0H20.1111L20.7202 1.84615Z" fill="#575F64"/>
<path class="p-32393F" d="M15.8254 1.84615C15.3156 1.84615 14.9023 1.43288 14.9023 0.923077C14.9023 0.413276 15.3156 0 15.8254 0H20.1109L20.72 1.84615H15.8254Z" fill="#4D98CB"/>
<path class="p-D3D3D8" d="M14.9734 17.5385C14.9734 18.3508 14.6227 19.0892 14.0503 19.5878C13.5703 20.0308 12.9241 20.3077 12.2042 20.3077H5.59961V14.7693H12.2042C12.9241 14.7693 13.5703 15.0462 14.0503 15.4892C14.6227 15.9878 14.9734 16.7263 14.9734 17.5385Z" fill="#B9DFFC"/>
<path class="p-BABAC0" d="M14.9739 17.5383C14.9739 18.3506 14.6231 19.089 14.0508 19.5876V15.489C14.6231 15.9876 14.9739 16.726 14.9739 17.5383Z" fill="#4D98CB"/>
</svg>

<svg width="32" height="24" fill="none" xmlns="http://www.w3.org/2000/svg"><path class="p-32393F" d="M24.985 11.077a6.462 6.462 0 000 12.923c3.569 0 6.523-2.893 6.523-6.462 0-3.568-2.954-6.461-6.523-6.461zm0 11.077a4.62 4.62 0 01-4.615-4.616 4.62 4.62 0 014.615-4.615c2.545 0 4.677 2.07 4.677 4.615 0 2.545-2.132 4.616-4.677 4.616z" fill="#4D98CB"/><path class="p-575F64" d="M6.523 11.077C2.955 11.077 0 13.97 0 17.538 0 21.107 2.955 24 6.523 24a6.462 6.462 0 000-12.923zm0 11.077c-2.545 0-4.677-2.07-4.677-4.616 0-2.544 2.132-4.615 4.677-4.615a4.62 4.62 0 014.616 4.615 4.62 4.62 0 01-4.616 4.616z" fill="#58ADE5"/><path class="p-73BCFF" d="M9.194 4.202l1.846 3.692-1.65.826-1.847-3.692 1.651-.826z" fill="#A1D1FD"/><path class="p-0095FF" d="M25.65 16.615L20.727 1.846 19.524.923l-.743.923 5.539 16.616h1.588a.923.923 0 000-1.847h-.258z" fill="#5FBEFF"/><path class="p-73BCFF" d="M21.901 7.385V9.23H10.787l-3.12 5.538-1.144 1.846L5.6 14.77l4.043-7.384H21.9z" fill="#A1D1FD"/><path class="p-0095FF" d="M15.754 7.385h6.148V9.23h-6.148V7.385z" fill="#5FBEFF"/><path class="p-575F64" d="M18.375 22.56l-1.55 1.034-1.071-1.606-2.555-4.105 1.532-1.034 1.023 1.779 2.621 3.932z" fill="#58ADE5"/><path class="p-32393F" d="M18.375 22.56l-1.55 1.034-1.071-1.607v-3.36l2.621 3.933z" fill="#4D98CB"/><path class="p-575F64" d="M5.6 4.615c0-.51.413-.923.923-.923h6.461V5.54H6.523a.923.923 0 01-.923-.924z" fill="#58ADE5"/><path class="p-575F64" d="M20.72 1.846h-4.966a.923.923 0 010-1.846h4.357l.61 1.846z" fill="#575F64"/><path class="p-32393F" d="M15.825 1.846a.923.923 0 110-1.846h4.286l.609 1.846h-4.895z" fill="#4D98CB"/><path class="p-D3D3D8" d="M14.973 17.538c0 .813-.35 1.551-.923 2.05a2.71 2.71 0 01-1.846.72H5.6v-5.539h6.604c.72 0 1.366.277 1.846.72a2.71 2.71 0 01.923 2.05z" fill="#B9DFFC"/><path class="p-BABAC0" d="M14.974 17.538c0 .813-.35 1.551-.923 2.05v-4.099a2.71 2.71 0 01.923 2.05z" fill="#4D98CB"/></svg>
